X: 47
T:Morris Dance
M:C|
L:1/4
R:Morris Dance
N:Transcribed as in Orchesography - there is quite probably a bar missing
N:in the final part
B:Thoinot Arbeau : Orchesographie, 1589
Z:Steve Mansfield March 2001
K:CMix
cc cd | c4 | AF FG | E2 C2 ::
AF FG | AF FG | AF FG | E2 C2 ::
L:1/8
cBcd cBcd | c2AB c4 | 
AGAG FAGF | E2DE C4 ::
AFFF AGAG | FEFG AGAG |
FEFG E2DE | C4 :| 

